X:18942
T:Wyresdale Hornpipe, The
S:Andy Hornby
R:Hornpipe
O:England
N:1994
M:3/2
C:Andy Hornby
A:Lancaster
K:D
d2 A4 d2 BAGF | A2D2 DEFG ABcA | \
d2A2d2 e2f2ef \
|1 g2ga gfed cdec :|2 gfec d4-d4 :|*
|: fefg a2d2 g2f2 | efed cdcB A4 | \
cBcd e2ef gfed \
|1 cdec d6 A2 :|2 cdec d6 B2 :|*
|: ABAG FGEF DEFG | A2d2 d2ef gfed | \
f2d2e2c2 dcBA \
|1 B2G2A2F2 GFED :|2 gfec d4-d4 ||**
W:Copyright Andy Hornby


